X:355
T:Hiking Song, The 
C:Joe Buchanan's Scottish Tome - Page 018.1
I:018 1
C:Alex Mackenzie
R:March
Z:Carl Allison
L:1/8
M:4/4
K:G
d/>c/ |"G" B2 G2 D2 B2 |A2 G4 B,C |D2 B2 "D7"D2 A2 |"G" G6 AB |
|"Am"c2 d2 "D7"B2 F2 |"Em" E2 E4 EF |"A7" G2 E2 E2 G2 |"D7"d4 z2 d>c |
|"G"B2 G2 D2 B2 | A2 G4 EF | G2 G2 "Am"AG"D7"FE |"G" G6 EF |
|"G"E2"Bm"D2"C"C2"G"B, | G,A, B,4 "Am"CD | "G"E2 d2 G"Am"E "D7"F2 | "G"D4 z2B,2 |
|"G"B2>B2 d2 "D7"DD | "G"G2>B2 d2 DD | "C"E2 "Em"G2 "Am"c2 "Em"B2 |"Am" A6 "D7"B>c |
|"G"d2>B2 G2>F2 | "C"E2 "Em"G2 "Am"AG"F#"FE | "G"D2 d2 "Am"BG "D7"A2 | "G"(G4>G4) z2 |]

